X:33011
T: At the Fair
O: Trad
R: reel
B: RSCDS 33-1
Z: 1997 by John Chambers <jc:trillian.mit.edu>
N: Harding's Collection
M: C|
L: 1/8
%--------------------
K: C
G2 \
|| "C"c2ec g2ec | c2ec "G7"Bcde | "C"c2ec g2fe \
| "Dm"fedc "G7"Bcde || "C"c2ec g2ec |
| c2ec "G7"Bcde | "Am"c2ec "Em"g2fe | "Dm"fe"D7"dc "G"Bc"E7"de \
|]| "Am"c2ec "Em"B2eB | "F"A2cA "C"G2AG |
| "G7"F2GF "C"EGce | "D7"dABc "G"edBG || "Am"c2ec "Em"B2eB | "F"A2cA "C"G2AG \
| "Dm"F2"G7"GF "C"EGce | "F"Ad"G7"BG "C"c2 |]
